src/apps/scalable/com.rtosta.zapzap.svg

<svg xmlns="http://www.w3.org/2000/svg" width="64" height="64"><defs><linearGradient id="e" x1="8.358" x2="59.375" y1="52.195" y2="52.027" gradientTransform="matrix(4.5083 0 0 4.24676 -24.681 -11.663)" gradientUnits="userSpaceOnUse" href="#a"/><linearGradient id="a"><stop offset="0" style="stop-color:#c0bfbc;stop-opacity:.96470588"/><stop offset=".122" style="stop-color:#f6f5f4;stop-opacity:.96470588"/><stop offset=".241" style="stop-color:#c0bfbc;stop-opacity:.96470588"/><stop offset=".729" style="stop-color:#c0bfbc;stop-opacity:.96470588"/><stop offset=".862" style="stop-color:#f6f5f4;stop-opacity:.96470588"/><stop offset="1" style="stop-color:#c0bfbc;stop-opacity:.96470588"/></linearGradient><linearGradient id="f" x1="33.867" x2="33.867" y1="51.861" y2="12.73" gradientTransform="matrix(4.98332 0 0 4.72765 -41.269 -31.905)" gradientUnits="userSpaceOnUse" href="#b"/><linearGradient id="b"><stop offset="0" style="stop-color:#209232;stop-opacity:1"/><stop offset="1" style="stop-color:#34c640;stop-opacity:1"/></linearGradient><linearGradient id="c" x1="7.937" x2="7.937" y1="15.081" y2="1.852" gradientTransform="translate(-3.222 1.896)scale(3.7796)" gradientUnits="userSpaceOnUse"><stop offset="0" stop-color="#cdcdcd"/><stop offset="1" stop-color="#fefefe"/></linearGradient><filter id="d" width="200%" height="200%" x="-50%" y="-50%" color-interpolation-filters="sRGB"><feGaussianBlur in="SourceAlpha" stdDeviation="6"/><feOffset dx="10" dy="10"/><feComponentTransfer result="offsetblur"><feFuncA type="linear"/></feComponentTransfer><feFlood flood-color="rgba(0,0,0,0.3)"/><feComposite in2="offsetblur" operator="in"/><feMerge><feMergeNode/><feMergeNode in="SourceGraphic"/></feMerge></filter></defs><rect width="56.002" height="56.002" x=".777" y="5.865" fill="url(#c)" rx="13.002" ry="13.002" style="stroke-width:1"/><g style="filter:url(#d)" transform="translate(7.63 12.718)scale(.16522)"><path d="M128.002 26.343C64.49 26.343 13 74.843 13 134.672c.017 18.477 5.051 36.643 14.624 52.77l-6.03 23.184c-2.166-.289-4.102 1.298-4.098 3.36l.033 13.051v.531l.002.785q.01.426.128.837c.939 7.422 8.602 12.786 16.108 11.275l42.997-8.859c15.915 7.479 33.453 11.379 51.238 11.394C191.515 243 243 194.5 243 134.672S191.515 26.343 128.002 26.343" style="fill:url(#e);fill-opacity:1;stroke-width:.208431"/><path d="M128.001 13C64.489 13 13.001 61.499 13 121.327c.017 18.478 5.052 36.644 14.625 52.772l-8.596 33.043-1.161 4.461c-2.297 8.826 6.536 17.447 15.899 15.518h.001l42.996-8.86c15.914 7.48 33.452 11.38 51.237 11.395 63.513 0 114.999-48.501 114.998-108.329S191.513 13 128.001 13" style="fill-opacity:1;stroke:none;stroke-width:.1;stroke-dasharray:none;stroke-opacity:1;fill:#fff"/><path d="M127.502 28.277c-30.903.01-59.977 13.923-78.353 37.496l82.896 3.941-101.806 44.968a87 87 0 0 0-.239 6.095c0 51.087 43.653 92.5 97.502 92.5 35.084-.006 67.458-17.893 84.777-46.839l-82.734-3.934L225 120.342c-.25-50.914-43.83-92.063-97.498-92.065" style="fill:url(#f);fill-opacity:1;stroke:none;stroke-width:.05;stroke-linejoin:miter;stroke-dasharray:none;stroke-opacity:1"/></g></svg>

<?xml version="1.0" encoding="utf-8"?>
<svg width="64" height="64" version="1.1" id="svg2" xmlns="http://www.w3.org/2000/svg" xmlns:bx="https://boxy-svg.com">
  <defs id="defs2">
    <linearGradient id="linearGradient3062" x1="8.3581467" y1="52.194504" x2="59.375187" y2="52.027035" gradientUnits="userSpaceOnUse" gradientTransform="matrix(4.508297, 0, 0, 4.246757, -24.681, -11.662596)" href="#linearGradient3060"/>
    <linearGradient id="linearGradient3060">
      <stop style="stop-color:#c0bfbc;stop-opacity:0.96470588;" offset="0" id="stop3056"/>
      <stop style="stop-color:#f6f5f4;stop-opacity:0.96470588;" offset="0.1216" id="stop10456"/>
      <stop style="stop-color:#c0bfbc;stop-opacity:0.96470588;" offset="0.2415" id="stop10458"/>
      <stop style="stop-color:#c0bfbc;stop-opacity:0.96470588;" offset="0.7285" id="stop10462"/>
      <stop style="stop-color:#f6f5f4;stop-opacity:0.96470588;" offset="0.8621" id="stop10460"/>
      <stop style="stop-color:#c0bfbc;stop-opacity:0.96470588;" offset="1" id="stop3058"/>
    </linearGradient>
    <linearGradient id="linearGradient15564" x1="33.867146" y1="51.861328" x2="33.867188" y2="12.729865" gradientUnits="userSpaceOnUse" gradientTransform="matrix(4.983321, 0, 0, 4.727647, -41.268536, -31.905169)" href="#linearGradient15562"/>
    <linearGradient id="linearGradient15562">
      <stop style="stop-color:#209232;stop-opacity:1;" offset="0" id="stop15558"/>
      <stop style="stop-color:#34c640;stop-opacity:1;" offset="1" id="stop15560"/>
    </linearGradient>
    <linearGradient id="a" x1="7.937" x2="7.937" y1="15.081" y2="1.852" gradientTransform="matrix(3.7796, 0, 0, 3.7796, -3.222305, 1.896013)" gradientUnits="userSpaceOnUse">
      <stop offset="0" stop-color="#cdcdcd"/>
      <stop offset="1" stop-color="#fefefe"/>
    </linearGradient>
    <filter id="drop-shadow-filter-1" bx:preset="drop-shadow 1 10 10 6 0.5 rgba(0,0,0,0.3)" color-interpolation-filters="sRGB" x="-50%" y="-50%" width="200%" height="200%">
      <feGaussianBlur in="SourceAlpha" stdDeviation="6"/>
      <feOffset dx="10" dy="10"/>
      <feComponentTransfer result="offsetblur">
        <feFuncA id="spread-ctrl" type="linear" slope="1"/>
      </feComponentTransfer>
      <feFlood flood-color="rgba(0,0,0,0.3)"/>
      <feComposite in2="offsetblur" operator="in"/>
      <feMerge>
        <feMergeNode/>
        <feMergeNode in="SourceGraphic"/>
      </feMerge>
    </filter>
  </defs>
  <rect width="56.002" height="56.002" x="0.777" y="5.865" fill="url(#a)" rx="13.002" ry="13.002" style="stroke-width: 1;"/>
  <g transform="matrix(0.165217, 0, 0, 0.165217, 7.630224, 12.718224)" style="filter: url(&quot;#drop-shadow-filter-1&quot;);">
    <path id="path2070" style="fill:url(#linearGradient3062);fill-opacity:1;stroke-width:0.208431" d="M 128.002 26.343 C 64.49 26.343 13 74.843 13 134.672 C 13.017 153.149 18.051 171.315 27.624 187.442 L 21.594 210.626 C 19.428 210.337 17.492 211.924 17.496 213.986 L 17.529 227.037 L 17.529 227.326 C 17.528 227.407 17.528 227.487 17.529 227.568 L 17.531 228.353 C 17.537 228.636 17.58 228.917 17.659 229.19 C 18.598 236.612 26.261 241.976 33.767 240.465 L 76.764 231.606 C 92.679 239.085 110.217 242.985 128.002 243 C 191.515 243 243 194.5 243 134.672 C 243 74.843 191.515 26.343 128.002 26.343 Z"/>
    <path id="path1677" style="fill-opacity: 1; stroke: none; stroke-width: 0.1; stroke-dasharray: none; stroke-opacity: 1; fill: rgb(255, 255, 255);" d="M 128.001 13 C 64.489 13 13.001 61.499 13 121.327 C 13.017 139.805 18.052 157.971 27.625 174.099 L 19.029 207.142 L 17.868 211.603 C 15.571 220.429 24.404 229.05 33.767 227.121 C 33.767 227.121 33.768 227.121 33.768 227.121 L 76.764 218.261 C 92.678 225.741 110.216 229.641 128.001 229.656 C 191.514 229.656 243 181.155 242.999 121.327 C 242.999 61.499 191.513 13 128.001 13 Z"/>
    <path id="path333" style="fill:url(#linearGradient15564);fill-opacity:1;stroke:none;stroke-width:0.05;stroke-linejoin:miter;stroke-dasharray:none;stroke-opacity:1" d="M 127.502 28.277 C 96.599 28.287 67.525 42.2 49.149 65.773 L 132.045 69.714 L 30.239 114.682 C 30.088 116.71 30.008 118.743 30 120.777 C 30 171.864 73.653 213.277 127.502 213.277 C 162.586 213.271 194.96 195.384 212.279 166.438 L 129.545 162.504 L 225 120.342 C 224.75 69.428 181.17 28.279 127.502 28.277 Z"/>
  </g>
</svg>
